X:1
T:Bemerton (Greatorex), CM
T:Henry Wellington Greatorex, 1849
T:Bemerton (Greatorex), CM
T:Public Domain
C:Henry Wellington Greatorex, 1849
Z:Public Domain
%%score ( 1 2 ) ( 3 4 )
L:1/8
M:3/4
K:Bb
V:1 treble 
V:2 treble 
V:3 bass 
V:4 bass 
V:1
 [Fd]2 | [Ec]4 [DB]2 | [CA]4 [EG]2 | [DF]4 [EB]2 | [DB]4 [DB]2 | ([Dd]2 [Ec]2) [FB]2 | %6
 ([Ee]3 [Fd]) (cB) | (B2 A2) [EF]2 | [DF]2 [Fd]2 ([Ec]>[Fd]) | [Ec]2 [DB]2 [DF]2 | [DF]4 (E>F) | %11
 [EA]2 [DB]2 F2 | [Fd]2 [DB]2 [DF]2 | ([B,D]2 [DF]2) (B>c) | [DB]4 |] %15
V:2
 x2 | x6 | x6 | x6 | x6 | x6 | x4 G2 | F4 x2 | x6 | x6 | x4 A2 | x4 F2 | x6 | x4 E2 | x4 |] %15
V:3
 [B,,F,]2 | [B,,F,]4 [B,,F,]2 | [B,,F,]4 [B,,B,]2 | (B,2 F,2) [B,,G,]2 | [B,,F,]4 [B,,F,]2 | %5
 (B,,2 C,2) [D,B,]2 | ([C,G,]3 [D,=B,]) ([E,C][=E,^C]) | (D2 C2) [F,A,]2 | [B,,B,]4 [F,A,]2 | %9
 [B,,B,]4 [B,,B,]2 | (F,2 D2) (C>D) | C2 B,2 F,2 | [B,,F,]4 [B,,F,]2 | [B,,F,]4 [B,,G,]2 | %14
 [B,,F,]4 |] %15
V:4
 x2 | x6 | x6 | B,,4 x2 | x6 | F,4 x2 | x6 | F,4 x2 | x6 | x6 | B,,4 F,2 | B,,4 F,2 | x6 | x6 | %14
 x4 |] %15

